static/images/supporters/wos.svg

<svg width="403" height="164" viewBox="0 0 403 164" fill="none" xmlns="http://www.w3.org/2000/svg">
<path d="M383.12 0.0200195H20.1095C9.1522 0.0200195 0.269531 8.90269 0.269531 19.86V143.3C0.269531 154.257 9.1522 163.14 20.1095 163.14H383.12C394.077 163.14 402.96 154.257 402.96 143.3V19.86C402.96 8.90269 394.077 0.0200195 383.12 0.0200195Z" fill="#1E2127"/>
<path d="M155.609 89.61H166.169C166.999 89.61 167.379 88.97 167.059 88.14L149.459 46.14C149.311 45.7102 149.022 45.3433 148.639 45.0998C148.255 44.8562 147.8 44.7505 147.349 44.8H132.759C132.325 44.7759 131.895 44.8936 131.534 45.1354C131.174 45.3771 130.901 45.7298 130.759 46.14L111.159 92.91C110.839 93.74 111.219 94.38 111.989 94.38H125.689C125.92 94.3802 126.148 94.4369 126.352 94.5452C126.556 94.6534 126.731 94.81 126.861 95.0012C126.991 95.1924 127.073 95.4125 127.098 95.6423C127.124 95.8722 127.093 96.1048 127.009 96.32L117.319 121.12L147.879 88.48C148.015 88.3415 148.107 88.1663 148.145 87.976C148.184 87.7856 148.166 87.5883 148.093 87.408C148.021 87.2278 147.898 87.0724 147.739 86.9609C147.581 86.8494 147.393 86.7865 147.199 86.78H129.869C129.637 86.779 129.41 86.722 129.205 86.6138C129.001 86.5055 128.826 86.3493 128.695 86.1586C128.564 85.9678 128.482 85.7482 128.455 85.5186C128.427 85.2889 128.456 85.0561 128.539 84.84L133.599 72L140.459 54.49L147.239 72H139.709C139.423 72.001 139.143 72.0871 138.906 72.2474C138.67 72.4077 138.486 72.6349 138.379 72.9L135.559 80.12C135.474 80.3338 135.443 80.5651 135.468 80.7938C135.493 81.0225 135.573 81.2415 135.703 81.4319C135.832 81.6222 136.006 81.778 136.209 81.8858C136.412 81.9935 136.639 82.0499 136.869 82.05H150.149C150.436 82.049 150.718 82.1355 150.955 82.298C151.193 82.4606 151.375 82.6914 151.479 82.96L153.559 88.32C153.7 88.7378 153.981 89.0941 154.355 89.329C154.728 89.564 155.171 89.6632 155.609 89.61ZM218.249 89.61H255.669C255.863 89.6381 256.062 89.6217 256.25 89.5618C256.437 89.502 256.609 89.4004 256.751 89.2646C256.894 89.1288 257.004 88.9624 257.072 88.778C257.141 88.5936 257.167 88.3959 257.149 88.2V80.72C257.167 80.524 257.141 80.3264 257.072 80.142C257.004 79.9576 256.894 79.7912 256.751 79.6554C256.609 79.5196 256.437 79.418 256.25 79.3582C256.062 79.2983 255.863 79.2818 255.669 79.31H229.669V46.22C229.678 46.0214 229.643 45.8231 229.567 45.6395C229.491 45.4558 229.375 45.2912 229.228 45.1574C229.081 45.0237 228.906 44.9241 228.716 44.8657C228.526 44.8074 228.325 44.7918 228.129 44.82H218.209C218.015 44.7938 217.819 44.8113 217.633 44.8714C217.448 44.9314 217.278 45.0324 217.137 45.1668C216.996 45.3012 216.887 45.4657 216.818 45.648C216.749 45.8303 216.722 46.0258 216.739 46.22V88.22C216.722 88.4173 216.751 88.6157 216.823 88.8002C216.895 88.9846 217.008 89.1502 217.154 89.2843C217.299 89.4183 217.474 89.5174 217.663 89.5738C217.853 89.6303 218.053 89.6427 218.249 89.61ZM263.609 89.61H305.659C305.853 89.6365 306.05 89.6187 306.236 89.5582C306.423 89.4976 306.593 89.3957 306.734 89.2601C306.876 89.1245 306.984 88.9588 307.053 88.7752C307.121 88.5916 307.147 88.395 307.129 88.2V80.72C307.147 80.525 307.121 80.3284 307.053 80.1448C306.984 79.9612 306.876 79.7955 306.734 79.6599C306.593 79.5243 306.423 79.4224 306.236 79.3618C306.05 79.3012 305.853 79.2835 305.659 79.31H275.069V72H300.669C300.862 72.0208 301.057 71.9992 301.241 71.9366C301.424 71.874 301.592 71.7719 301.732 71.6375C301.872 71.5032 301.981 71.3398 302.051 71.1588C302.122 70.9778 302.151 70.7837 302.139 70.59V63.59C302.151 63.3963 302.122 63.2022 302.051 63.0212C301.981 62.8402 301.872 62.6768 301.732 62.5425C301.592 62.4081 301.424 62.306 301.241 62.2434C301.057 62.1808 300.862 62.1591 300.669 62.18H275.069V55.18H305.659C305.853 55.2065 306.05 55.1888 306.236 55.1282C306.423 55.0676 306.593 54.9657 306.734 54.8301C306.876 54.6945 306.984 54.5288 307.053 54.3452C307.121 54.1616 307.147 53.965 307.129 53.77V46.22C307.145 46.0258 307.118 45.8303 307.049 45.648C306.98 45.4657 306.871 45.3012 306.73 45.1668C306.589 45.0324 306.419 44.9314 306.234 44.8714C306.048 44.8113 305.852 44.7938 305.659 44.82H263.609C263.415 44.7938 263.219 44.8113 263.033 44.8714C262.848 44.9314 262.678 45.0324 262.537 45.1668C262.396 45.3012 262.287 45.4657 262.218 45.648C262.149 45.8303 262.122 46.0258 262.139 46.22V88.22C262.123 88.4134 262.152 88.6078 262.221 88.7888C262.291 88.9698 262.4 89.133 262.541 89.2663C262.682 89.3996 262.851 89.4996 263.036 89.5591C263.221 89.6186 263.416 89.636 263.609 89.61V89.61ZM116.919 44.82H106.749C106.319 44.7754 105.889 44.8949 105.544 45.1546C105.199 45.4143 104.965 45.7949 104.889 46.22L97.2086 79.12L89.9986 46.22C89.9365 45.8017 89.7161 45.4232 89.383 45.1627C89.0499 44.9022 88.6295 44.7795 88.2086 44.82H75.5086C75.0807 44.778 74.6527 44.8988 74.3099 45.1583C73.967 45.4177 73.7345 45.7968 73.6586 46.22L66.4886 79.12L58.8086 46.22C58.7465 45.8017 58.5261 45.4232 58.193 45.1627C57.8599 44.9022 57.4395 44.7795 57.0186 44.82H46.2686C45.3686 44.82 44.9886 45.33 45.1786 46.22L56.0586 88.22C56.1252 88.637 56.3463 89.0136 56.678 89.2748C57.0097 89.5361 57.4276 89.6629 57.8486 89.63H73.5286C73.951 89.6702 74.3727 89.5462 74.7061 89.2836C75.0394 89.021 75.2588 88.6401 75.3186 88.22L81.5886 59.94L87.9286 88.22C87.9884 88.6401 88.2078 89.021 88.5411 89.2836C88.8745 89.5462 89.2962 89.6702 89.7186 89.63H105.339C105.761 89.6702 106.183 89.5462 106.516 89.2836C106.849 89.021 107.069 88.6401 107.129 88.22L118.009 46.22C118.199 45.33 117.819 44.82 116.919 44.82ZM356.759 44.82H313.239C313.045 44.7938 312.849 44.8113 312.663 44.8714C312.478 44.9314 312.308 45.0324 312.167 45.1668C312.026 45.3012 311.917 45.4657 311.848 45.648C311.779 45.8303 311.752 46.0258 311.769 46.22V53.71C311.75 53.905 311.776 54.1016 311.844 54.2852C311.913 54.4688 312.022 54.6345 312.163 54.7701C312.304 54.9057 312.474 55.0076 312.661 55.0682C312.847 55.1288 313.045 55.1465 313.239 55.12H328.539V88.2C328.52 88.395 328.546 88.5916 328.614 88.7752C328.683 88.9588 328.792 89.1245 328.933 89.2601C329.074 89.3957 329.244 89.4976 329.431 89.5582C329.617 89.6187 329.815 89.6365 330.009 89.61H340.009C340.202 89.6308 340.397 89.6092 340.581 89.5466C340.764 89.484 340.932 89.3819 341.072 89.2475C341.212 89.1132 341.321 88.9498 341.391 88.7688C341.462 88.5878 341.491 88.3937 341.479 88.2V55.12H356.779C356.973 55.1465 357.17 55.1288 357.356 55.0682C357.543 55.0076 357.713 54.9057 357.854 54.7701C357.996 54.6345 358.104 54.4688 358.173 54.2852C358.241 54.1016 358.267 53.905 358.249 53.71V46.22C358.266 46.0239 358.239 45.8263 358.168 45.6424C358.098 45.4584 357.987 45.2927 357.844 45.1579C357.7 45.023 357.528 44.9226 357.34 44.864C357.152 44.8055 356.953 44.7904 356.759 44.82V44.82ZM172.889 89.61H210.319C210.513 89.6365 210.71 89.6187 210.896 89.5582C211.083 89.4976 211.253 89.3957 211.394 89.2601C211.536 89.1245 211.644 88.9588 211.713 88.7752C211.781 88.5916 211.807 88.395 211.789 88.2V80.72C211.807 80.525 211.781 80.3284 211.713 80.1448C211.644 79.9612 211.536 79.7955 211.394 79.6599C211.253 79.5243 211.083 79.4224 210.896 79.3618C210.71 79.3012 210.513 79.2835 210.319 79.31H184.319V46.22C184.328 46.0214 184.293 45.8231 184.217 45.6395C184.141 45.4558 184.025 45.2912 183.878 45.1574C183.731 45.0237 183.556 44.9241 183.366 44.8657C183.176 44.8074 182.975 44.7918 182.779 44.82H172.859C172.665 44.7938 172.469 44.8113 172.283 44.8714C172.098 44.9314 171.928 45.0324 171.787 45.1668C171.646 45.3012 171.537 45.4657 171.468 45.648C171.399 45.8303 171.372 46.0258 171.389 46.22V88.22C171.373 88.4163 171.401 88.6137 171.473 88.7973C171.544 88.9809 171.656 89.1458 171.801 89.2797C171.945 89.4136 172.118 89.5129 172.307 89.5701C172.495 89.6273 172.694 89.641 172.889 89.61V89.61ZM169.049 99.22H157.529C154.389 99.22 152.989 100.53 152.989 103.58V113.94C152.989 117 154.389 118.31 157.529 118.31H169.049C172.209 118.31 173.559 117 173.559 113.94V103.58C173.559 100.53 172.209 99.22 169.049 99.22V99.22ZM168.109 112.17C168.109 113.64 167.809 113.92 166.029 113.92H160.519C158.769 113.92 158.439 113.64 158.439 112.17V105.35C158.439 103.88 158.769 103.61 160.519 103.61H165.999C167.779 103.61 168.079 103.88 168.079 105.35L168.109 112.17ZM219.999 106.58H211.259C210.369 106.58 210.099 106.31 210.099 105.58V104.51C210.099 103.83 210.369 103.56 211.259 103.56H217.949C218.599 103.56 218.839 103.83 218.839 104.4V104.57C218.83 104.653 218.841 104.736 218.869 104.814C218.898 104.892 218.944 104.962 219.003 105.02C219.063 105.078 219.135 105.121 219.214 105.147C219.293 105.173 219.376 105.181 219.459 105.17H223.509C223.591 105.181 223.675 105.173 223.753 105.147C223.832 105.121 223.904 105.078 223.964 105.02C224.023 104.962 224.069 104.892 224.098 104.814C224.126 104.736 224.137 104.653 224.129 104.57V103.5C224.129 100.28 223.029 99.22 219.729 99.22H209.119C205.939 99.22 204.609 100.53 204.609 103.58V106.42C204.609 109.47 205.939 110.78 209.119 110.78H217.869C218.759 110.78 219.029 111.05 219.029 111.73V113C219.029 113.68 218.759 114 217.869 114H210.529C209.899 114 209.659 113.72 209.659 113.15V112.99C209.665 112.908 209.653 112.825 209.624 112.748C209.595 112.671 209.549 112.601 209.49 112.544C209.43 112.487 209.359 112.443 209.281 112.417C209.203 112.39 209.12 112.381 209.039 112.39H205.039C204.956 112.379 204.873 112.387 204.794 112.413C204.715 112.439 204.643 112.482 204.583 112.54C204.524 112.598 204.478 112.668 204.449 112.746C204.421 112.824 204.41 112.907 204.419 112.99V114C204.419 117.22 205.499 118.29 208.819 118.29H219.999C223.189 118.29 224.509 116.98 224.509 113.92V110.92C224.479 107.89 223.159 106.58 219.999 106.58ZM305.429 106.58H296.689C295.799 106.58 295.529 106.31 295.529 105.58V104.51C295.529 103.83 295.799 103.56 296.689 103.56H303.379C304.029 103.56 304.269 103.83 304.269 104.4V104.57C304.26 104.653 304.271 104.736 304.299 104.814C304.328 104.892 304.374 104.962 304.433 105.02C304.493 105.078 304.565 105.121 304.644 105.147C304.723 105.173 304.806 105.181 304.889 105.17H308.939C309.021 105.181 309.105 105.173 309.183 105.147C309.262 105.121 309.334 105.078 309.394 105.02C309.453 104.962 309.499 104.892 309.528 104.814C309.556 104.736 309.567 104.653 309.559 104.57V103.5C309.559 100.28 308.449 99.22 305.159 99.22H294.549C291.369 99.22 290.039 100.53 290.039 103.58V106.42C290.039 109.47 291.369 110.78 294.549 110.78H303.299C304.189 110.78 304.459 111.05 304.459 111.73V113C304.459 113.68 304.189 114 303.299 114H295.999C295.379 114 295.139 113.72 295.139 113.15V112.99C295.145 112.908 295.133 112.825 295.104 112.748C295.075 112.671 295.029 112.601 294.97 112.544C294.911 112.487 294.839 112.443 294.761 112.417C294.683 112.39 294.6 112.381 294.519 112.39H290.469C290.386 112.379 290.303 112.387 290.224 112.413C290.145 112.439 290.073 112.482 290.013 112.54C289.954 112.598 289.908 112.668 289.879 112.746C289.851 112.824 289.84 112.907 289.849 112.99V114C289.849 117.22 290.929 118.29 294.249 118.29H305.449C308.639 118.29 309.959 116.98 309.959 113.92V110.92C309.909 107.89 308.589 106.58 305.399 106.58H305.429ZM332.079 99.22H327.869C327.786 99.209 327.703 99.2168 327.624 99.2428C327.545 99.2687 327.473 99.3122 327.413 99.3699C327.354 99.4276 327.308 99.4981 327.279 99.5761C327.251 99.654 327.24 99.7374 327.249 99.82V106.47H317.999V99.82C318.004 99.7354 317.99 99.6507 317.959 99.5721C317.927 99.4934 317.879 99.4228 317.816 99.3653C317.754 99.3079 317.68 99.265 317.599 99.2399C317.518 99.2147 317.432 99.2079 317.349 99.22H313.169C313.086 99.209 313.003 99.2168 312.924 99.2428C312.845 99.2687 312.773 99.3122 312.713 99.3699C312.654 99.4276 312.608 99.4981 312.579 99.5761C312.551 99.654 312.54 99.7374 312.549 99.82V117.71C312.54 117.793 312.551 117.876 312.579 117.954C312.608 118.032 312.654 118.102 312.713 118.16C312.773 118.218 312.845 118.261 312.924 118.287C313.003 118.313 313.086 118.321 313.169 118.31H317.349C317.432 118.322 317.518 118.315 317.599 118.29C317.68 118.265 317.754 118.222 317.816 118.165C317.879 118.107 317.927 118.037 317.959 117.958C317.99 117.879 318.004 117.795 317.999 117.71V110.86H327.209V117.71C327.2 117.793 327.211 117.876 327.239 117.954C327.268 118.032 327.314 118.102 327.373 118.16C327.433 118.218 327.505 118.261 327.584 118.287C327.663 118.313 327.746 118.321 327.829 118.31H332.039C332.121 118.321 332.205 118.313 332.283 118.287C332.362 118.261 332.434 118.218 332.494 118.16C332.553 118.102 332.599 118.032 332.628 117.954C332.656 117.876 332.667 117.793 332.659 117.71V99.82C332.667 99.7384 332.656 99.656 332.628 99.5788C332.6 99.5017 332.555 99.4318 332.497 99.3743C332.438 99.3168 332.368 99.2731 332.29 99.2464C332.213 99.2197 332.13 99.2107 332.049 99.22H332.079ZM194.459 99.22H177.319C177.236 99.209 177.153 99.2168 177.074 99.2428C176.995 99.2687 176.923 99.3122 176.863 99.3699C176.804 99.4276 176.758 99.4981 176.729 99.5761C176.701 99.654 176.69 99.7374 176.699 99.82V117.71C176.69 117.793 176.701 117.876 176.729 117.954C176.758 118.032 176.804 118.102 176.863 118.16C176.923 118.218 176.995 118.261 177.074 118.287C177.153 118.313 177.236 118.321 177.319 118.31H181.499C181.582 118.322 181.668 118.315 181.749 118.29C181.83 118.265 181.904 118.222 181.966 118.165C182.029 118.107 182.077 118.037 182.109 117.958C182.14 117.879 182.154 117.795 182.149 117.71V111.19H192.299C192.382 111.2 192.467 111.192 192.547 111.166C192.627 111.141 192.701 111.098 192.763 111.04C192.824 110.983 192.873 110.914 192.905 110.836C192.937 110.758 192.952 110.674 192.949 110.59V107.4C192.952 107.316 192.937 107.232 192.905 107.154C192.873 107.076 192.824 107.007 192.763 106.95C192.701 106.892 192.627 106.849 192.547 106.824C192.467 106.798 192.382 106.79 192.299 106.8H182.149V103.61H194.429C194.511 103.621 194.595 103.613 194.673 103.587C194.752 103.561 194.824 103.518 194.884 103.46C194.943 103.402 194.989 103.332 195.018 103.254C195.046 103.176 195.057 103.093 195.049 103.01V99.82C195.057 99.7374 195.046 99.654 195.018 99.5761C194.989 99.4981 194.943 99.4276 194.884 99.3699C194.824 99.3122 194.752 99.2687 194.673 99.2428C194.595 99.2168 194.511 99.209 194.429 99.22H194.459ZM340.939 99.22H336.749C336.666 99.209 336.583 99.2168 336.504 99.2428C336.425 99.2687 336.353 99.3122 336.293 99.3699C336.234 99.4276 336.188 99.4981 336.159 99.5761C336.131 99.654 336.12 99.7374 336.129 99.82V117.71C336.12 117.793 336.131 117.876 336.159 117.954C336.188 118.032 336.234 118.102 336.293 118.16C336.353 118.218 336.425 118.261 336.504 118.287C336.583 118.313 336.666 118.321 336.749 118.31H340.939C341.022 118.32 341.107 118.312 341.187 118.286C341.267 118.261 341.341 118.218 341.402 118.16C341.464 118.103 341.513 118.034 341.545 117.956C341.577 117.878 341.592 117.794 341.589 117.71V99.82C341.593 99.733 341.578 99.6461 341.544 99.5658C341.51 99.4855 341.458 99.4139 341.393 99.3563C341.328 99.2986 341.25 99.2565 341.166 99.2329C341.083 99.2093 340.994 99.2049 340.909 99.22H340.939ZM240.599 99.79C240.541 99.6119 240.424 99.4586 240.268 99.3551C240.112 99.2516 239.925 99.204 239.739 99.22H233.589C233.397 99.1948 233.202 99.2382 233.04 99.3425C232.877 99.4468 232.756 99.6053 232.699 99.79L225.269 117.68C225.139 118.03 225.269 118.31 225.649 118.31H230.099C230.288 118.328 230.478 118.28 230.636 118.174C230.795 118.069 230.912 117.912 230.969 117.73L231.969 115.06H241.069L242.069 117.73C242.118 117.914 242.232 118.074 242.39 118.181C242.548 118.288 242.739 118.333 242.929 118.31H247.629C247.949 118.31 248.109 118.03 247.979 117.68L240.599 99.79ZM233.599 110.79L236.489 103.26L239.379 110.79H233.599ZM264.459 99.23H246.109C246.026 99.219 245.943 99.2268 245.864 99.2528C245.785 99.2787 245.713 99.3222 245.653 99.3799C245.594 99.4377 245.548 99.5081 245.519 99.5861C245.491 99.664 245.48 99.7474 245.489 99.83V103C245.48 103.083 245.491 103.166 245.519 103.244C245.548 103.322 245.594 103.392 245.653 103.45C245.713 103.508 245.785 103.551 245.864 103.577C245.943 103.603 246.026 103.611 246.109 103.6H252.559V117.7C252.552 117.783 252.564 117.867 252.594 117.945C252.623 118.022 252.67 118.093 252.731 118.15C252.791 118.208 252.863 118.251 252.943 118.277C253.022 118.303 253.106 118.311 253.189 118.3H257.399C257.48 118.307 257.562 118.297 257.639 118.27C257.717 118.242 257.787 118.199 257.846 118.142C257.905 118.085 257.951 118.016 257.98 117.94C258.01 117.863 258.023 117.782 258.019 117.7V103.6H264.469C264.551 103.611 264.635 103.603 264.713 103.577C264.792 103.551 264.864 103.508 264.924 103.45C264.983 103.392 265.029 103.322 265.058 103.244C265.086 103.166 265.097 103.083 265.089 103V99.81C265.095 99.7282 265.084 99.6459 265.054 99.5693C265.025 99.4926 264.979 99.4234 264.92 99.3669C264.86 99.3103 264.789 99.2677 264.711 99.2423C264.633 99.2169 264.55 99.2093 264.469 99.22L264.459 99.23ZM282.929 99.23H271.409C268.279 99.23 266.879 100.54 266.879 103.59V113.95C266.879 117.01 268.279 118.32 271.409 118.32H282.939C286.099 118.32 287.439 117.01 287.439 113.95V103.58C287.439 100.53 286.099 99.22 282.939 99.22L282.929 99.23ZM281.999 112.17C281.999 113.64 281.709 113.92 279.919 113.92H274.419C272.659 113.92 272.339 113.64 272.339 112.17V105.35C272.339 103.88 272.659 103.61 274.419 103.61H279.919C281.709 103.61 281.999 103.88 281.999 105.35V112.17Z" fill="#FAD228"/>
</svg>

<svg width="403" height="164" fill="none" xmlns="http://www.w3.org/2000/svg"><path d="M383.12.02H20.11C9.152.02.27 8.903.27 19.86V143.3c0 10.957 8.882 19.84 19.84 19.84h363.01c10.957 0 19.84-8.883 19.84-19.84V19.86c0-10.957-8.883-19.84-19.84-19.84Z" fill="#1E2127"/><path d="M155.609 89.61h10.56c.83 0 1.21-.64.89-1.47l-17.6-42a2.001 2.001 0 0 0-2.11-1.34h-14.59a2.002 2.002 0 0 0-2 1.34l-19.6 46.77c-.32.83.06 1.47.83 1.47h13.7a1.418 1.418 0 0 1 1.409 1.262c.026.23-.005.463-.089.678l-9.69 24.8 30.56-32.64a.997.997 0 0 0 .214-1.072.999.999 0 0 0-.894-.628h-17.33a1.433 1.433 0 0 1-1.174-.621 1.424 1.424 0 0 1-.156-1.319l5.06-12.84 6.86-17.51 6.78 17.51h-7.53a1.443 1.443 0 0 0-1.33.9l-2.82 7.22a1.409 1.409 0 0 0 1.31 1.93h13.28a1.419 1.419 0 0 1 1.33.91l2.08 5.36a1.919 1.919 0 0 0 2.05 1.29Zm62.64 0h37.42a1.301 1.301 0 0 0 1.48-1.41v-7.48a1.308 1.308 0 0 0-.398-1.065 1.297 1.297 0 0 0-1.082-.345h-26V46.22a1.358 1.358 0 0 0-.441-1.063 1.351 1.351 0 0 0-1.099-.337h-9.92a1.302 1.302 0 0 0-1.391.828 1.296 1.296 0 0 0-.079.572v42a1.291 1.291 0 0 0 .415 1.064 1.298 1.298 0 0 0 1.095.326Zm45.36 0h42.05a1.297 1.297 0 0 0 1.394-.835 1.31 1.31 0 0 0 .076-.575v-7.48a1.31 1.31 0 0 0-.395-1.06 1.293 1.293 0 0 0-1.075-.35h-30.59V72h25.6a1.332 1.332 0 0 0 1.47-1.41v-7a1.33 1.33 0 0 0-1.47-1.41h-25.6v-7h30.59a1.295 1.295 0 0 0 1.075-.35 1.302 1.302 0 0 0 .395-1.06v-7.55a1.312 1.312 0 0 0-.399-1.053 1.301 1.301 0 0 0-1.071-.347h-42.05a1.302 1.302 0 0 0-1.391.828 1.296 1.296 0 0 0-.079.572v42a1.298 1.298 0 0 0 1.47 1.39Zm-146.69-44.79h-10.17a1.71 1.71 0 0 0-1.86 1.4l-7.68 32.9-7.21-32.9a1.65 1.65 0 0 0-1.79-1.4h-12.7a1.71 1.71 0 0 0-1.85 1.4l-7.17 32.9-7.68-32.9a1.65 1.65 0 0 0-1.79-1.4h-10.75c-.9 0-1.28.51-1.09 1.4l10.88 42a1.68 1.68 0 0 0 1.79 1.41h15.68a1.65 1.65 0 0 0 1.79-1.41l6.27-28.28 6.34 28.28a1.65 1.65 0 0 0 1.79 1.41h15.62a1.649 1.649 0 0 0 1.79-1.41l10.88-42c.19-.89-.19-1.4-1.09-1.4Zm239.84 0h-43.52a1.302 1.302 0 0 0-1.391.828 1.296 1.296 0 0 0-.079.572v7.49a1.295 1.295 0 0 0 .892 1.358 1.3 1.3 0 0 0 .578.052h15.3V88.2a1.295 1.295 0 0 0 .892 1.358c.186.06.384.078.578.052h10a1.332 1.332 0 0 0 1.47-1.41V55.12h15.3a1.295 1.295 0 0 0 1.075-.35 1.302 1.302 0 0 0 .395-1.06v-7.49a1.303 1.303 0 0 0-.909-1.356 1.298 1.298 0 0 0-.581-.044Zm-183.87 44.79h37.43a1.297 1.297 0 0 0 1.394-.835 1.31 1.31 0 0 0 .076-.575v-7.48a1.31 1.31 0 0 0-.395-1.06 1.293 1.293 0 0 0-1.075-.35h-26V46.22a1.358 1.358 0 0 0-.441-1.063 1.351 1.351 0 0 0-1.099-.337h-9.92a1.302 1.302 0 0 0-1.391.828 1.296 1.296 0 0 0-.079.572v42a1.293 1.293 0 0 0 .412 1.06 1.293 1.293 0 0 0 1.088.33Zm-3.84 9.61h-11.52c-3.14 0-4.54 1.31-4.54 4.36v10.36c0 3.06 1.4 4.37 4.54 4.37h11.52c3.16 0 4.51-1.31 4.51-4.37v-10.36c0-3.05-1.35-4.36-4.51-4.36Zm-.94 12.95c0 1.47-.3 1.75-2.08 1.75h-5.51c-1.75 0-2.08-.28-2.08-1.75v-6.82c0-1.47.33-1.74 2.08-1.74h5.48c1.78 0 2.08.27 2.08 1.74l.03 6.82Zm51.89-5.59h-8.74c-.89 0-1.16-.27-1.16-1v-1.07c0-.68.27-.95 1.16-.95h6.69c.65 0 .89.27.89.84v.17a.547.547 0 0 0 .62.6h4.05a.545.545 0 0 0 .455-.15.562.562 0 0 0 .165-.45v-1.07c0-3.22-1.1-4.28-4.4-4.28h-10.61c-3.18 0-4.51 1.31-4.51 4.36v2.84c0 3.05 1.33 4.36 4.51 4.36h8.75c.89 0 1.16.27 1.16.95V113c0 .68-.27 1-1.16 1h-7.34c-.63 0-.87-.28-.87-.85v-.16a.57.57 0 0 0-.169-.446.563.563 0 0 0-.209-.127.554.554 0 0 0-.242-.027h-4a.55.55 0 0 0-.62.6V114c0 3.22 1.08 4.29 4.4 4.29h11.18c3.19 0 4.51-1.31 4.51-4.37v-3c-.03-3.03-1.35-4.34-4.51-4.34Zm85.43 0h-8.74c-.89 0-1.16-.27-1.16-1v-1.07c0-.68.27-.95 1.16-.95h6.69c.65 0 .89.27.89.84v.17a.547.547 0 0 0 .62.6h4.05a.545.545 0 0 0 .455-.15.562.562 0 0 0 .165-.45v-1.07c0-3.22-1.11-4.28-4.4-4.28h-10.61c-3.18 0-4.51 1.31-4.51 4.36v2.84c0 3.05 1.33 4.36 4.51 4.36h8.75c.89 0 1.16.27 1.16.95V113c0 .68-.27 1-1.16 1h-7.3c-.62 0-.86-.28-.86-.85v-.16a.57.57 0 0 0-.169-.446.555.555 0 0 0-.209-.127.554.554 0 0 0-.242-.027h-4.05a.55.55 0 0 0-.62.6V114c0 3.22 1.08 4.29 4.4 4.29h11.2c3.19 0 4.51-1.31 4.51-4.37v-3c-.05-3.03-1.37-4.34-4.56-4.34h.03Zm26.65-7.36h-4.21a.55.55 0 0 0-.62.6v6.65h-9.25v-6.65a.568.568 0 0 0-.65-.6h-4.18a.55.55 0 0 0-.62.6v17.89a.547.547 0 0 0 .62.6h4.18a.573.573 0 0 0 .65-.6v-6.85h9.21v6.85a.547.547 0 0 0 .62.6h4.21a.545.545 0 0 0 .455-.15.562.562 0 0 0 .165-.45V99.82a.55.55 0 0 0-.61-.6h.03Zm-137.62 0h-17.14a.55.55 0 0 0-.62.6v17.89a.547.547 0 0 0 .62.6h4.18a.573.573 0 0 0 .65-.6v-6.52h10.15a.58.58 0 0 0 .65-.6v-3.19a.593.593 0 0 0-.186-.45.58.58 0 0 0-.464-.15h-10.15v-3.19h12.28a.545.545 0 0 0 .455-.15.562.562 0 0 0 .165-.45v-3.19a.562.562 0 0 0-.165-.45.553.553 0 0 0-.455-.15h.03Zm146.48 0h-4.19a.55.55 0 0 0-.62.6v17.89a.547.547 0 0 0 .62.6h4.19a.58.58 0 0 0 .65-.6V99.82a.583.583 0 0 0-.423-.587.577.577 0 0 0-.257-.013h.03Zm-100.34.57a.832.832 0 0 0-.86-.57h-6.15a.818.818 0 0 0-.89.57l-7.43 17.89c-.13.35 0 .63.38.63h4.45a.827.827 0 0 0 .87-.58l1-2.67h9.1l1 2.67a.79.79 0 0 0 .86.58h4.7c.32 0 .48-.28.35-.63l-7.38-17.89Zm-7 11 2.89-7.53 2.89 7.53h-5.78Zm30.86-11.56h-18.35a.55.55 0 0 0-.62.6V103a.547.547 0 0 0 .62.6h6.45v14.1a.554.554 0 0 0 .172.45.547.547 0 0 0 .458.15h4.21a.576.576 0 0 0 .447-.158.58.58 0 0 0 .173-.442v-14.1h6.45a.545.545 0 0 0 .455-.15.562.562 0 0 0 .165-.45v-3.19a.549.549 0 0 0-.378-.568.55.55 0 0 0-.242-.022l-.01.01Zm18.47 0h-11.52c-3.13 0-4.53 1.31-4.53 4.36v10.36c0 3.06 1.4 4.37 4.53 4.37h11.53c3.16 0 4.5-1.31 4.5-4.37v-10.37c0-3.05-1.34-4.36-4.5-4.36l-.01.01Zm-.93 12.94c0 1.47-.29 1.75-2.08 1.75h-5.5c-1.76 0-2.08-.28-2.08-1.75v-6.82c0-1.47.32-1.74 2.08-1.74h5.5c1.79 0 2.08.27 2.08 1.74v6.82Z" fill="#FAD228"/></svg>
